icons/hazardous_fill.svg

<svg width="48" height="48" viewBox="0 0 48 48" fill="none" xmlns="http://www.w3.org/2000/svg">
<path d="M20.3002 30L16.0844 37.4402C15.9985 37.5912 15.9772 37.7687 16.0251 37.9347C16.0728 38.1007 16.1861 38.242 16.3403 38.3282C21.0073 40.9382 26.9938 40.9382 31.6581 38.3282C31.8129 38.2424 31.9266 38.1012 31.9747 37.9351C32.0229 37.769 32.0016 37.5913 31.9154 37.4402L27.7006 30.0002C26.6853 30.7821 25.3994 31.2493 24.0005 31.2493C22.6016 31.2493 21.3155 30.7821 20.3002 30Z" fill="black"/>
<path d="M20.8499 17.7241L16.5144 10.3529C16.4266 10.2031 16.2835 10.0958 16.1158 10.0544C15.9482 10.0127 15.7692 10.0401 15.6174 10.1306C11.0236 12.8673 8.03035 18.0518 7.95847 23.3962C7.9554 23.5732 8.02083 23.7423 8.14065 23.867C8.26034 23.9917 8.42493 24.0622 8.59885 24.063L17.1495 24.1329C16.9801 22.8627 17.2184 21.5154 17.9178 20.304C18.6173 19.0924 19.665 18.2123 20.8499 17.7241Z" fill="black"/>
<path d="M30.8499 24.2752L39.4013 24.2061C39.5749 24.205 39.7394 24.1347 39.8591 24.0102C39.979 23.8858 40.0448 23.7171 40.0423 23.5404C39.9691 18.1938 36.9759 13.0093 32.3834 10.2748C32.2317 10.1837 32.0525 10.1558 31.8846 10.1972C31.7167 10.2385 31.5734 10.3458 31.4857 10.496L27.1499 17.8661C28.3346 18.3545 29.3823 19.2345 30.0817 20.446C30.7812 21.6575 31.0195 23.0049 30.8499 24.2752Z" fill="black"/>
<path d="M29 23.9999C29 26.7613 26.7614 28.9999 24 28.9999C21.2386 28.9999 19 26.7613 19 23.9999C19 21.2385 21.2386 18.9999 24 18.9999C26.7614 18.9999 29 21.2385 29 23.9999Z" fill="black"/>
<path fill-rule="evenodd" clip-rule="evenodd" d="M24 42C33.9411 42 42 33.9411 42 24C42 14.0589 33.9411 6 24 6C14.0589 6 6 14.0589 6 24C6 33.9411 14.0589 42 24 42ZM24 44C35.0457 44 44 35.0457 44 24C44 12.9543 35.0457 4 24 4C12.9543 4 4 12.9543 4 24C4 35.0457 12.9543 44 24 44Z" fill="black"/>
</svg>

<svg
  xmlns="http://www.w3.org/2000/svg"
  width="24"
  height="24"
  viewBox="0 0 24 24"
  fill="none"
  stroke="currentColor"
  stroke-width="2"
  stroke-linecap="round"
  stroke-linejoin="round"
>
  <path d="m20.3 30-4.216 7.44a.64.64 0 0 0-.059.495.66.66 0 0 0 .315.393c4.667 2.61 10.654 2.61 15.318 0a.66.66 0 0 0 .317-.393.64.64 0 0 0-.06-.495L27.701 30a6.05 6.05 0 0 1-3.7 1.25A6.05 6.05 0 0 1 20.3 30" />
  <path d="m20.85 17.724-4.336-7.371a.64.64 0 0 0-.398-.299.66.66 0 0 0-.499.077c-4.593 2.736-7.587 7.92-7.659 13.265a.66.66 0 0 0 .183.471c.12.125.284.195.458.196l8.55.07a6.05 6.05 0 0 1 .769-3.829 6.05 6.05 0 0 1 2.932-2.58" />
  <path d="m30.85 24.275 8.551-.069a.64.64 0 0 0 .458-.196.66.66 0 0 0 .183-.47c-.073-5.346-3.066-10.53-7.659-13.265a.66.66 0 0 0-.498-.078.64.64 0 0 0-.4.299l-4.335 7.37a6.05 6.05 0 0 1 2.932 2.58c.7 1.211.938 2.559.768 3.83" />
  <path d="M29 24a5 5 0 1 1-10 0 5 5 0 0 1 10 0" />
  <path
    fill-rule="evenodd"
    d="M24 42c9.941 0 18-8.059 18-18S33.941 6 24 6 6 14.059 6 24s8.059 18 18 18m0 2c11.046 0 20-8.954 20-20S35.046 4 24 4 4 12.954 4 24s8.954 20 20 20"
    clip-rule="evenodd"
  />
</svg>
